X:1
T: The Drunken Tailor
C:
R:Reel
Q: 232
K:Em
M:4/4
L:1/8
d1/2^c1/2|BE ((3EEE) BE dE|dE ((3EEE) BA FA|AD ((3DDD) AD dD|AD ((3DDD) BA FA|
BE ((3EEE) BE dE|dE ((3EEE) BA FA|BA B^c de fc|dB AF ((3EEE) E2|
Be ((3eee) d^c dB|ce ((3eee) BA FA|Be ((3eee) d^c dB|AF DF ((3EEE) E2|
Be ((3eee) d^c dB|^ce ((3eee) BA FA|BA B^c df ec|dB AF ((3EEE) E2|
Be ((3eee) d^c dB|ce ((3eee) BA FA|Be ((3eee) d^c dB|AF DF ((3EEE) E2|
Be ((3eee) d^c dB|^ce ((3eee) BA FA|Bd ^ce df eg|fd e^c dB Ad|
BE ((3EEE) BE dE|dE ((3EEE) BA FA|AD ((3DDD) AD dD|AD ((3DDD) BA FA|
BE ((3EEE) BE dE|dE ((3EEE) BA FA|BA B^c de fc|dB AF ((3EEE) E||
